X:1
T:Deventer, LM
T:Berthold Tours, 1872
T:Deventer, LM
T:Public Domain
C:Berthold Tours, 1872
Z:Public Domain
%%score ( 1 2 ) ( 3 4 )
L:1/8
M:4/4
K:C
V:1 treble 
V:2 treble 
V:3 bass 
V:4 bass 
V:1
 [EG]2 | [EG]2 [Ec]2 [EB]2 [FA]2 | [CG]3 [B,F] [CE]2 [DG]2 | [Cc]2 [DA]2 [Dd]2 (GA) | %4
 [DB]2 [DA]2 [DG]2 [B,G]2 | [CG]2 [Ec]2 [^DB]2 [^FA]2 | (ED) [^CA]2 [DF]2 [DG]2 | %7
 [CE]2 [CG]2 [CA]2 [Fd]2 | [FB]3 [Ec] [Ec]2 |] %9
V:2
 x2 | x8 | x8 | x6 E2 | x8 | x8 | G2 x6 | x8 | x6 |] %9
V:3
 C2 | C2 [A,C]2 [G,C]2 [F,C]2 | [E,G,]3 [D,G,] [C,G,]2 [B,,G,]2 | %3
 [A,,A,]2 (D,C,) [B,,G,]2 [C,G,]2 | [D,G,]2 (^F,C) [G,B,]2 (G,=F,) | %5
 [E,G,]2 (A,G,) [B,,^F,]2 [^D,B,]2 | [E,B,]2 [A,,A,]2 [D,A,]2 [B,,G,]2 | %7
 [C,G,]2 (CB,) (F,E,) [D,A,]2 | G,3 [C,G,] [C,G,]2 |] %9
V:4
 C2 | C2 x6 | x8 | x2 ^F,2 x4 | x2 D,2 x G,2 x | x2 A,,2 x4 | x8 | x2 E,2 A,2 x2 | G,3 x3 |] %9

